X:1
T:Dic y Cymro - Dick the Welshman
C:Trad.
L:1/8
Q:1/8=280
M:2/4
I:linebreak $
K:D
V:1 treble 
V:1
 FA GB | AF ED | Ad AF | E2 DE | FA GB | AF ED | FA E>F | ED D2 :| d2 AF | d2 AF | FA F/E/D |$ %11
 E2 EA | d2 AF d2 AF | FA E>F | ED D2 | d2 AF | d2 AF | FA F/E/D | E2 ED/E/ | FA GB | AF ED | %21
 FA E>F |$ ED D2 || %23
